X: 1
T: the Carpenter of Sollas
C: Willie Doig (1998)
M: 3/4
L: 1/8
N: Sometimes the middle two bars are omitted.
F: http://weiners.users.oregonfast.net/ootfa/apr2009jrhoedowner.pdf 2011-6-3
N: The composer, Willie Doig, lives at Inverness, Scotland.
N: The tune was named for Angus MacDonald (1781-1857), born on North Uist
N: in the Hebrides.  He emigrated to Cape Breton, Nova Scotia in 1828, where
N: he was known as "An Saor Mor" (the big carpenter) because of his size.
K: A
[| "A"c4 B2 | A4 E2 | "D"F4 E2 | "A"E4 AB \
| c4 c2 | c2 B2 A2 | "Bm"B4 B2 | "E7"B4 AB |
| "A"c4 B2 | A4 E2 | F4 E2 | E4 AB \
| c4 c2 | B3 c B2 | A4- | A3 E2 |
| e4 e2 | A4 E2 | fe d2 c2 | B4 AB \
| c4 B2 | A4 E2 | F2 A2 B2 | A4 |
| "A"c4 B2 | A6 | "D"f3 e c2 | "E7"B4 AB \
| "A"c4 B2 | A4 E2 | "D"F2 A2 B2 | A4 c2 |
| "A"e4 e2 | A4 A2 | "D"a3 g f2 | "A"e4 AB \
| "F#m"c4 c2 | "A"c2 B2 A2 | "E7"B4 B2 | B2 c2 d2 |
| "A"e4 e2 | A4 A2 | "D"a4 g f2 | "A"e4 AB \
| "F#m"c4 c2 | "E7"B3 c B2 | "A"A6- | A6 |]
